static/icons/counterclockwise.svg

<svg xmlns="http://www.w3.org/2000/svg" width="24" height="24" fill="none">
  <path fill="#000" fill-rule="evenodd" d="M16.4986 3.18598c-1.4539-.80507-3.1205-1.15751-4.7769-1.01051-1.6566.14701-3.22702.78695-4.49873 1.83824C5.95093 5.06528 5.03946 6.47773 4.61501 8.0623c-.42447 1.58465-.34026 3.261.23885 4.8023.57894 1.5411 1.62385 2.8712 2.98998 3.8149 1.30679.9028 2.84966 1.4121 4.43786 1.4687l-2.33796 2.2464c-.15761.2022-.23284.4532-.21209.707.02085.2538.13641.4933.32555.6745.1891.1812.4389.292.7038.3121.2648.02.5269-.0521.7379-.203l4.3763-4.1917c.2003-.1959.3114-.4605.3093-.737-.0023-.2765-.1176-.5428-.3211-.7418L11.42 11.9558c-.2135-.1541-.4767-.2302-.7412-.2142-.2646.016-.5128.1231-.69897.3014-.18626.1783-.29804.4161-.31483.6696-.0168.2535.0625.5057.22331.7103l-.01095-.0001 2.88214 2.7626c-.0775-.0202-.1587-.0313-.2425-.0321-1.266-.0125-2.5005-.4037-3.53643-1.1193-1.03573-.7156-1.82109-1.7192-2.25449-2.8728-.43326-1.1531-.49494-2.40261-.17918-3.58142.31578-1.17888.9951-2.23488 1.95038-3.0246.95561-.78999 2.14212-1.2758 3.40112-1.38755 1.2593-.11174 2.5269.15648 3.6313.76801C16.591 5.52331 17.25 5.5 17.5 5c.5-1-.1396-1.33678-1.0014-1.81402z" clip-rule="evenodd"/>
</svg>

<svg width="24" height="24" viewBox="0 0 24 24" fill="none" xmlns="http://www.w3.org/2000/svg">
<path fill-rule="evenodd" clip-rule="evenodd" d="M16.4986 3.18598C15.0447 2.38091 13.3781 2.02847 11.7217 2.17547C10.0651 2.32248 8.49468 2.96242 7.22297 4.01371C5.95093 5.06528 5.03946 6.47773 4.61501 8.0623C4.19054 9.64695 4.27475 11.3233 4.85386 12.8646C5.4328 14.4057 6.47771 15.7358 7.84384 16.6795C9.15063 17.5823 10.6935 18.0916 12.2817 18.1482L9.94374 20.3946C9.78613 20.5968 9.7109 20.8478 9.73165 21.1016C9.7525 21.3554 9.86806 21.5949 10.0572 21.7761C10.2463 21.9573 10.4961 22.0681 10.761 22.0882C11.0258 22.1082 11.2879 22.0361 11.4989 21.8852L15.8752 17.6935C16.0755 17.4976 16.1866 17.233 16.1845 16.9565C16.1822 16.68 16.0669 16.4137 15.8634 16.2147L11.42 11.9558C11.2065 11.8017 10.9433 11.7256 10.6788 11.7416C10.4142 11.7576 10.166 11.8647 9.97983 12.043C9.79357 12.2213 9.68179 12.4591 9.665 12.7126C9.6482 12.9661 9.7275 13.2183 9.88831 13.4229L9.87736 13.4228L12.7595 16.1854C12.682 16.1652 12.6008 16.1541 12.517 16.1533C11.251 16.1408 10.0165 15.7496 8.98057 15.034C7.94484 14.3184 7.15948 13.3148 6.72608 12.1612C6.29282 11.0081 6.23114 9.75859 6.5469 8.57978C6.86268 7.4009 7.542 6.3449 8.49728 5.55518C9.45289 4.76519 10.6394 4.27938 11.8984 4.16763C13.1577 4.05589 14.4253 4.32411 15.5297 4.93564C16.591 5.52331 17.25 5.5 17.5 5C18 4 17.3604 3.66322 16.4986 3.18598Z" fill="black"/>
</svg>
